website/static/img/icons/azure-synapse-analytics.svg

<svg enable-background="new 0 0 1100.8 865.1" viewBox="0 0 1100.8 865.1" xmlns="http://www.w3.org/2000/svg"><path d="m550.4 74.7-312.2 178.5v356.7l312.2 180.6 312.2-178.5v-357.9zm254.6 499.9-254.6 147.2-254.6-145.6v-287.8l254.6-147.2 254.6 147.7z" fill="#2474bb"/><path d="m673.4 432.6c-4.9 0-9.8.5-14.6 1.4-36.8-47.5-90.7-78.8-150.2-87.3l257.4-148.8-59.9-34.4-235.4 136c-32.8-24-78.8-16.8-102.8 16.1-24 32.8-16.8 78.8 16.1 102.8 32.1 23.4 76.9 17.1 101.4-14.2 48.8 2.8 94.1 26.2 124.6 64.3-6.7 11.3-10.3 24.2-10.2 37.4 0 2.6.2 5.3.5 7.9l-264.2 152.7 59.6 34.3 234.3-135.5c32.7 24 78.7 16.9 102.7-15.8s16.9-78.7-15.8-102.7c-12.6-9.3-27.8-14.2-43.5-14.2z" fill="#76cae7"/></svg>

<?xml version="1.0" encoding="utf-8"?>
<!-- Generator: Adobe Illustrator 26.0.3, SVG Export Plug-In . SVG Version: 6.00 Build 0)  -->
<svg version="1.0" id="Layer_1" xmlns="http://www.w3.org/2000/svg" xmlns:xlink="http://www.w3.org/1999/xlink" x="0px" y="0px"
	 viewBox="0 0 1100.8 865.1" style="enable-background:new 0 0 1100.8 865.1;" xml:space="preserve">
<style type="text/css">
	.st0{fill:#2474BB;}
	.st1{fill:#76CAE7;}
</style>
<path class="st0" d="M550.4,74.7L238.2,253.2v356.7l312.2,180.6L862.6,612V254.1L550.4,74.7z M805,574.6L550.4,721.8L295.8,576.2
	V288.4l254.6-147.2L805,288.9V574.6z"/>
<path class="st1" d="M673.4,432.6c-4.9,0-9.8,0.5-14.6,1.4c-36.8-47.5-90.7-78.8-150.2-87.3L766,197.9l-59.9-34.4l-235.4,136
	c-32.8-24-78.8-16.8-102.8,16.1c-24,32.8-16.8,78.8,16.1,102.8c32.1,23.4,76.9,17.1,101.4-14.2c48.8,2.8,94.1,26.2,124.6,64.3
	c-6.7,11.3-10.3,24.2-10.2,37.4c0,2.6,0.2,5.3,0.5,7.9L336.1,666.5l59.6,34.3L630,565.3c32.7,24,78.7,16.9,102.7-15.8
	c24-32.7,16.9-78.7-15.8-102.7C704.3,437.5,689.1,432.6,673.4,432.6z"/>
</svg>
